bundle/image/components/fullCard/img/cht.svg

<svg width="119" height="57" fill="none" xmlns="http://www.w3.org/2000/svg"><path d="M11.64 22.08v7.02H44.1v-7.02H11.64zm30.12 0v1.32c-.54 16.68-1.2 23.4-2.64 24.96-.66.66-1.32.84-2.4.84-1.5 0-4.62-.06-7.98-.36 1.32 2.04 2.28 5.16 2.4 7.26 3.54.12 7.02.18 9.12-.12 2.28-.36 3.96-.9 5.46-2.94 2.1-2.46 2.82-9.6 3.48-27.84.06-.9.12-3.12.12-3.12h-7.56zM18.42.84C14.82 9.96 8.16 18.36.6 23.34c1.74 1.38 4.86 4.26 6.24 5.82 7.56-5.94 14.88-15.6 19.38-26.04L18.42.84zM41.28.72 34.2 3.54c4.74 9.18 12.12 18.9 18.9 25.14 1.38-2.04 4.14-4.98 6.12-6.54C52.62 17.1 45.06 8.34 41.28.72zm-18.9 23.4c-.96 10.68-2.4 20.82-18.48 26.1 1.68 1.56 3.78 4.62 4.68 6.6 17.88-6.66 20.46-19.2 21.6-32.7h-7.8zm69.84-3.78v6.78h26.1v-6.78h-26.1zM88.56 4.26v17.46c0 8.94-.66 21.06-7.38 29.88 1.74.84 4.5 3.18 5.52 4.74 7.8-9.96 8.88-24.9 8.88-34.5V7.74c1.08-.18 1.5-.54 1.56-1.08l-8.58-2.4zm21.78-3.6c-4.92 2.4-12.9 4.62-20.28 6.06.9 1.5 1.98 4.2 2.34 5.88 7.92-1.26 17.1-3.36 24-6.3L110.34.66zm-6.96 21.78v33.9h7.14v-33.9h-7.14zM62.64 12.42v6.84h22.44v-6.84H62.64zM70.92.06V56.4h6.9V.06h-6.9zm-.36 16.98C69 24.72 65.22 34.08 61.08 39.3c1.08 1.8 2.76 4.74 3.42 6.72 4.62-6.18 8.4-17.82 10.32-27.48l-4.26-1.5zm6.72 5.28-3.3 3.24c2.04 3 6.12 9.66 7.74 13.26l4.02-5.7c-1.2-1.74-6.9-9.12-8.46-10.8z" fill="#fff"/></svg>

<svg width="119" height="57" viewBox="0 0 119 57" fill="none" xmlns="http://www.w3.org/2000/svg">
<path d="M11.64 22.08V29.1H44.1V22.08H11.64ZM41.76 22.08V23.4C41.22 40.08 40.56 46.8 39.12 48.36C38.46 49.02 37.8 49.2 36.72 49.2C35.22 49.2 32.1 49.14 28.74 48.84C30.06 50.88 31.02 54 31.14 56.1C34.68 56.22 38.16 56.28 40.26 55.98C42.54 55.62 44.22 55.08 45.72 53.04C47.82 50.58 48.54 43.44 49.2 25.2C49.26 24.3 49.32 22.08 49.32 22.08H41.76ZM18.42 0.839998C14.82 9.96 8.16 18.36 0.6 23.34C2.34 24.72 5.46 27.6 6.84 29.16C14.4 23.22 21.72 13.56 26.22 3.12L18.42 0.839998ZM41.28 0.719996L34.2 3.54C38.94 12.72 46.32 22.44 53.1 28.68C54.48 26.64 57.24 23.7 59.22 22.14C52.62 17.1 45.06 8.34 41.28 0.719996ZM22.38 24.12C21.42 34.8 19.98 44.94 3.9 50.22C5.58 51.78 7.68 54.84 8.58 56.82C26.46 50.16 29.04 37.62 30.18 24.12H22.38ZM92.22 20.34V27.12H118.32V20.34H92.22ZM88.56 4.26V21.72C88.56 30.66 87.9 42.78 81.18 51.6C82.92 52.44 85.68 54.78 86.7 56.34C94.5 46.38 95.58 31.44 95.58 21.84V7.74C96.66 7.56 97.08 7.2 97.14 6.66L88.56 4.26ZM110.34 0.659997C105.42 3.06 97.44 5.28 90.06 6.72C90.96 8.22 92.04 10.92 92.4 12.6C100.32 11.34 109.5 9.24 116.4 6.3L110.34 0.659997ZM103.38 22.44V56.34H110.52V22.44H103.38ZM62.64 12.42V19.26H85.08V12.42H62.64ZM70.92 0.0599978V56.4H77.82V0.0599978H70.92ZM70.56 17.04C69 24.72 65.22 34.08 61.08 39.3C62.16 41.1 63.84 44.04 64.5 46.02C69.12 39.84 72.9 28.2 74.82 18.54L70.56 17.04ZM77.28 22.32L73.98 25.56C76.02 28.56 80.1 35.22 81.72 38.82L85.74 33.12C84.54 31.38 78.84 24 77.28 22.32Z" fill="white"/>
</svg>
